src/lib/packages/icons/src/assets/line/arrow-down-arrow-up-circle.svg

<svg width="24" height="24" viewBox="0 0 24 24" fill="none" xmlns="http://www.w3.org/2000/svg">
<path d="M12.199 14.801C12.492 15.094 12.492 15.5691 12.199 15.8621L10.532 17.5291C10.463 17.5981 10.3801 17.6529 10.2891 17.6909C10.1981 17.7289 10.1 17.749 10.002 17.749C9.90395 17.749 9.80709 17.7289 9.71509 17.6909C9.62309 17.6529 9.54092 17.5981 9.47192 17.5291L7.80493 15.8621C7.51193 15.5701 7.51193 15.094 7.80493 14.801C8.09793 14.508 8.57297 14.508 8.86597 14.801L9.25293 15.187V8.99707C9.25293 8.58307 9.58893 8.24707 10.0029 8.24707C10.4169 8.24707 10.7529 8.58307 10.7529 8.99707V15.187L11.1399 14.801C11.4329 14.508 11.907 14.509 12.199 14.801ZM14.5281 6.46802C14.4591 6.39902 14.3759 6.34391 14.2839 6.30591C14.1009 6.22991 13.8939 6.22991 13.7109 6.30591C13.6189 6.34391 13.536 6.39902 13.467 6.46802L11.8 8.13501C11.507 8.42701 11.507 8.90304 11.8 9.19604C12.092 9.48804 12.5671 9.49004 12.8611 9.19604L13.248 8.81006V15C13.248 15.414 13.584 15.75 13.998 15.75C14.412 15.75 14.748 15.414 14.748 15V8.81006L15.135 9.19604C15.281 9.34204 15.473 9.41602 15.665 9.41602C15.857 9.41602 16.0491 9.34305 16.1951 9.19604C16.4881 8.90304 16.4881 8.42801 16.1951 8.13501L14.5281 6.46802ZM22.75 12C22.75 17.928 17.928 22.75 12 22.75C6.072 22.75 1.25 17.928 1.25 12C1.25 6.072 6.072 1.25 12 1.25C17.928 1.25 22.75 6.072 22.75 12ZM21.25 12C21.25 6.899 17.101 2.75 12 2.75C6.899 2.75 2.75 6.899 2.75 12C2.75 17.101 6.899 21.25 12 21.25C17.101 21.25 21.25 17.101 21.25 12Z" fill="currentColor"/>
</svg>

<svg xmlns="http://www.w3.org/2000/svg" width="24" height="24" fill="none"><path fill="currentColor" d="M12.199 14.801a.75.75 0 0 1 0 1.061l-1.667 1.667a.754.754 0 0 1-1.06 0l-1.667-1.667a.75.75 0 0 1 1.061-1.061l.387.386v-6.19a.75.75 0 0 1 1.5 0v6.19l.387-.386a.749.749 0 0 1 1.059 0Zm2.33-8.333a.75.75 0 0 0-1.062 0L11.8 8.135a.75.75 0 1 0 1.061 1.061l.387-.386V15a.75.75 0 0 0 1.5 0V8.81l.387.386a.748.748 0 0 0 1.06 0 .75.75 0 0 0 0-1.061l-1.667-1.667ZM22.75 12c0 5.928-4.822 10.75-10.75 10.75S1.25 17.928 1.25 12 6.072 1.25 12 1.25 22.75 6.072 22.75 12Zm-1.5 0c0-5.101-4.149-9.25-9.25-9.25S2.75 6.899 2.75 12s4.149 9.25 9.25 9.25 9.25-4.149 9.25-9.25Z"/></svg>
